X:1
T:The Jealous Lover
M:2/4
L:1/8
K:C
 E| C3/2 D/2 EG| A c2 A/2A/2| GE EC| D2 z E| C3/2 D/2 EG| A c2 A| GE DE|\
 C2||
